icons/loop-24.svg

<svg width="24" height="24" viewBox="0 0 24 24" fill="none" xmlns="http://www.w3.org/2000/svg">
<path d="M3.10908 5.60319C6.62373 2.0886 12.3219 2.0887 15.8366 5.60319C16.1295 5.89609 16.1295 6.37085 15.8366 6.66374C15.5437 6.95655 15.0689 6.9566 14.7761 6.66374C11.8471 3.73504 7.09849 3.73493 4.16962 6.66374C1.24076 9.5926 1.2409 14.3412 4.16962 17.2702C7.09856 20.1991 11.8471 20.1991 14.7761 17.2702L20.5974 11.4499H17.3005C16.8863 11.4499 16.5505 11.1141 16.5505 10.6999C16.5506 10.2857 16.8863 9.94987 17.3005 9.94987H22.0505C22.6025 9.95012 23.0504 10.3978 23.0505 10.9499V15.6999C23.0505 16.1139 22.7145 16.4496 22.3005 16.4499C21.8863 16.4499 21.5505 16.1141 21.5505 15.6999V12.6169L15.8366 18.3307C12.3219 21.8454 6.6238 21.8454 3.10908 18.3307C-0.405429 14.816 -0.405571 9.11784 3.10908 5.60319Z" fill="#59636E"/>
</svg>

<svg xmlns="http://www.w3.org/2000/svg" width="24" height="24" viewBox="0 0 24 24"><path d="M3.109 5.603a9.001 9.001 0 0 1 12.728 0 .75.75 0 1 1-1.061 1.061 7.5 7.5 0 0 0-10.606 0 7.5 7.5 0 0 0 0 10.606 7.5 7.5 0 0 0 10.606 0l5.821-5.82H17.3a.75.75 0 0 1 0-1.5h4.75a1 1 0 0 1 1 1v4.75a.75.75 0 1 1-1.5 0v-3.083l-5.713 5.714A9 9 0 0 1 3.109 5.603Z"/></svg>
